X: 30522
M: 6/8
L: 1/8
K: D
|: d/e/ |\
f>ed FAd | f>ed FAd | f>ed afd | cee A>Bc |\
ded BGd | AFd AFD | DFA dfa | ABc d2 :|


